X:1
T:Every Day Will I Bless Thee
T:Every Day Will I Bless Thee
T:James McGranahan, 1883
T:H. A. César Malan, tr. Jane E. Arnold, 1866
T:Public Domain, Courtesy of the Cyber Hymnal™
C:James McGranahan, 1883
Z:Public Domain,
Z:Courtesy of the Cyber Hymnal™
%%score ( 1 2 ) ( 3 4 )
L:1/8
Q:1/4=113
M:4/4
K:F
V:1 treble 
V:2 treble 
V:3 bass 
V:4 bass 
V:1
 C2 C2 [CF]2 [FA]2 [Fc]2 | [Ec]2 [EB]2 [EG]2 [GB]2 | [FA]2 [CF]2 [CE]2 F2 | [EG]6 C2 | %4
w: 1.~My Sav- ior’s prais- es|I will sing, And|all His love ex-|press; Whose|
w: 2.~Re- deemed by His al-|might- y power, My|Sav- ior and my|king; My|
w: 3.~On Thee a- lone, my|Sav- ior, God, My|stead- fast hopes de-|pend; And|
w: 4.~O grant Thy Ho- ly|Spir- it’s grace, And|aid my fee- ble|powers, That|
 C2 [CF]2 [FA]2 [Fc]2 | [Ec]2 [EB]2 [EG]2 [GB]2 | [FA]2 F2 [EG]3 [CF] | [CF]6 x2 || %8
w: mer- cies each re-|turn- ing day Pro-|claim His faith- ful-|ness.|
w: con- fi- dence in|Him I place, To|Him my soul would|cling.|
w: to Thy ho- ly|will my soul Sub-|mis- sive- ly would|bend.|
w: glad- ly I may|fol- low Thee Thro’|all my fu- ture|hours.|
"^Refrain" A>A x4 | A4 [^CE]2 [EG]2 | [EG]2 [DF]4 c>c | c4 [EG]2 [GB]2 | [GB]2 [FA]4 C2 | %13
w: |||||
w: |||||
w: |||||
w: |||||
 C2 [CF]2 [FA]2 [Fc]2 | [Fc]2 [FB]2 !fermata![Fd]2 [FB]2 | [FA]4 [EB]2 [CG]2 | [CG]2 [CF]4 x2 |] %17
w: ||||
w: ||||
w: ||||
w: ||||
 x6 |] %18
w: |
w: |
w: |
w: |
V:2
 C2 C2 x6 | x8 | x6 (CF) | x6 C2 | C2 x6 | x8 | x2 F2 x4 | x8 || A>A x4 | A4 x4 | x6 c>c | c4 x4 | %12
 x6 C2 | C2 x6 | x8 | x8 | x8 |] x6 |] %18
V:3
 [F,A,]2 x8 | [F,A,]2 [F,A,]2 [F,C]2 [F,A,]2 | [C,G,]2 [C,G,]2 [C,C]2 [C,C]2 | %3
w: ~|~ ~ ~ ~|~ ~ ~ ~|
 [F,C]2 [A,C]2 [G,B,]2 [F,A,]2 | [C,C]6 [E,B,]2 | [F,A,]2 [F,A,]2 [F,C]2 [F,A,]2 | %6
w: ~ ~ ~ ~|~ ~|~ ~ ~ ~|
 [C,G,]2 [C,G,]2 [C,C]2 [C,C]2 | [F,C]2 [F,A,]2 [C,B,]3 [F,A,] || [F,A,]6 | A,>A, x6 | %10
w: ~ ~ ~ ~|~ ~ ~ ~|~|“Ev- ery|
 A,4 [A,,A,]2 [A,,A,]2 | [D,A,]2 [D,A,]4 C>C | C4 [C,C]2 [C,C]2 | [F,C]2 [F,C]4 [F,A,]2 | %14
w: day will I|bless Thee! Ev- ery|day will I|bless Thee! And|
 [F,A,]2 [F,A,]2 [F,C]2 [A,_E]2 | [B,D]2 [B,,D]2 !fermata![B,,B,]2 [B,,D]2 | %16
w: I will praise, will|praise Thy name For|
 [C,C]4 [C,G,]2 [C,B,]2 |] [F,B,]2 [F,A,]4 |] %18
w: ev- er and|ev- er!”|
V:4
 x10 | x8 | x8 | x8 | x8 | x8 | x8 | x8 || x6 | A,>A, x6 | A,4 x4 | x6 C>C | C4 x4 | x8 | x8 | x8 | %16
 x8 |] x6 |] %18

